flaticon/music/jukebox.svg

<svg xmlns="http://www.w3.org/2000/svg" width="32" height="32" viewBox="0 0 24 24">
    <path d="M8.28125 7.71875C8.207031 7.640625 8.105469 7.601562 8 7.601562L7.199219 7.601562C7.09375 7.601562 6.992188 7.640625 6.917969 7.71875L6.515625 8.117188C6.441406 8.191406 6.398438 8.292969 6.398438 8.398438L6.398438 9.199219C6.398438 9.304688 6.441406 9.40625 6.515625 9.484375L6.917969 9.882812C6.992188 9.957031 7.09375 10 7.199219 10L8 10C8.105469 10 8.207031 9.957031 8.28125 9.882812L8.683594 9.484375C8.757812 9.40625 8.800781 9.304688 8.800781 9.199219L8.800781 8.398438C8.800781 8.292969 8.757812 8.191406 8.683594 8.117188zM8 9.035156L7.835938 9.199219 7.367188 9.199219 7.199219 9.035156 7.199219 8.566406 7.367188 8.398438 7.835938 8.398438 8 8.566406zM8.28125 10.917969C8.207031 10.84375 8.105469 10.800781 8 10.800781L7.199219 10.800781C7.09375 10.800781 6.992188 10.84375 6.917969 10.917969L6.515625 11.316406C6.441406 11.390625 6.398438 11.492188 6.398438 11.601562L6.398438 12.398438C6.398438 12.507812 6.441406 12.609375 6.515625 12.683594L6.917969 13.082031C6.992188 13.15625 7.09375 13.199219 7.199219 13.199219L8 13.199219C8.105469 13.199219 8.207031 13.15625 8.28125 13.082031L8.683594 12.683594C8.757812 12.609375 8.800781 12.507812 8.800781 12.398438L8.800781 11.601562C8.800781 11.492188 8.757812 11.390625 8.683594 11.316406zM8 12.234375L7.835938 12.398438 7.367188 12.398438 7.199219 12.234375 7.199219 11.765625 7.367188 11.601562 7.835938 11.601562 8 11.765625zM8.28125 14.117188C8.207031 14.042969 8.105469 14 8 14L7.199219 14C7.09375 14 6.992188 14.042969 6.917969 14.117188L6.515625 14.515625C6.441406 14.59375 6.398438 14.695312 6.398438 14.800781L6.398438 15.601562C6.398438 15.707031 6.441406 15.808594 6.515625 15.882812L6.917969 16.28125C6.992188 16.359375 7.09375 16.398438 7.199219 16.398438L8 16.398438C8.105469 16.398438 8.207031 16.359375 8.28125 16.28125L8.683594 15.882812C8.757812 15.808594 8.800781 15.707031 8.800781 15.601562L8.800781 14.800781C8.800781 14.695312 8.757812 14.59375 8.683594 14.515625zM8 15.433594L7.835938 15.601562 7.367188 15.601562 7.199219 15.433594 7.199219 14.964844 7.367188 14.800781 7.835938 14.800781 8 14.964844zM17.082031 7.71875C17.007812 7.640625 16.90625 7.601562 16.800781 7.601562L16 7.601562C15.894531 7.601562 15.792969 7.640625 15.71875 7.71875L15.316406 8.117188C15.242188 8.191406 15.199219 8.292969 15.199219 8.398438L15.199219 9.199219C15.199219 9.304688 15.242188 9.40625 15.316406 9.484375L15.71875 9.882812C15.792969 9.957031 15.894531 10 16 10L16.800781 10C16.90625 10 17.007812 9.957031 17.082031 9.882812L17.484375 9.484375C17.558594 9.40625 17.601562 9.304688 17.601562 9.199219L17.601562 8.398438C17.601562 8.292969 17.558594 8.191406 17.484375 8.117188zM16.800781 9.035156L16.632812 9.199219 16.164062 9.199219 16 9.035156 16 8.566406 16.164062 8.398438 16.632812 8.398438 16.800781 8.566406zM17.082031 10.917969C17.007812 10.84375 16.90625 10.800781 16.800781 10.800781L16 10.800781C15.894531 10.800781 15.792969 10.84375 15.71875 10.917969L15.316406 11.316406C15.242188 11.390625 15.199219 11.492188 15.199219 11.601562L15.199219 12.398438C15.199219 12.507812 15.242188 12.609375 15.316406 12.683594L15.71875 13.082031C15.792969 13.15625 15.894531 13.199219 16 13.199219L16.800781 13.199219C16.90625 13.199219 17.007812 13.15625 17.082031 13.082031L17.484375 12.683594C17.558594 12.609375 17.601562 12.507812 17.601562 12.398438L17.601562 11.601562C17.601562 11.492188 17.558594 11.390625 17.484375 11.316406zM16.800781 12.234375L16.632812 12.398438 16.164062 12.398438 16 12.234375 16 11.765625 16.164062 11.601562 16.632812 11.601562 16.800781 11.765625zM17.082031 14.117188C17.007812 14.042969 16.90625 14 16.800781 14L16 14C15.894531 14 15.792969 14.042969 15.71875 14.117188L15.316406 14.515625C15.242188 14.59375 15.199219 14.695312 15.199219 14.800781L15.199219 15.601562C15.199219 15.707031 15.242188 15.808594 15.316406 15.882812L15.71875 16.28125C15.792969 16.359375 15.894531 16.398438 16 16.398438L16.800781 16.398438C16.90625 16.398438 17.007812 16.359375 17.082031 16.28125L17.484375 15.882812C17.558594 15.808594 17.601562 15.707031 17.601562 15.601562L17.601562 14.800781C17.601562 14.695312 17.558594 14.59375 17.484375 14.515625zM16.800781 15.433594L16.632812 15.601562 16.164062 15.601562 16 15.433594 16 14.964844 16.164062 14.800781 16.632812 14.800781 16.800781 14.964844zM16.800781 15.433594"/>
    <path d="M 22.398438 20.855469 L 22.398438 15.601562 L 22.800781 15.601562 C 23.019531 15.601562 23.199219 15.421875 23.199219 15.199219 L 23.199219 9.199219 C 23.199219 8.980469 23.019531 8.800781 22.800781 8.800781 L 22.269531 8.800781 C 21.722656 5.273438 19.429688 2.378906 16.34375 0.953125 L 16.347656 0.945312 L 16.160156 0.871094 C 14.882812 0.308594 13.472656 0 12 0 C 10.527344 0 9.117188 0.308594 7.839844 0.871094 L 7.664062 0.941406 L 7.671875 0.949219 C 4.578125 2.371094 2.277344 5.269531 1.730469 8.800781 L 1.199219 8.800781 C 0.980469 8.800781 0.800781 8.980469 0.800781 9.199219 L 0.800781 15.199219 C 0.800781 15.421875 0.980469 15.601562 1.199219 15.601562 L 1.601562 15.601562 L 1.601562 20.855469 C 0.910156 21.035156 0.398438 21.65625 0.398438 22.398438 L 0.398438 23.601562 C 0.398438 23.820312 0.578125 24 0.800781 24 L 23.199219 24 C 23.421875 24 23.601562 23.820312 23.601562 23.601562 L 23.601562 22.398438 C 23.601562 21.65625 23.089844 21.035156 22.398438 20.855469 Z M 21.601562 20.800781 L 20 20.800781 L 20 15.601562 L 21.601562 15.601562 Z M 1.601562 14.800781 L 1.601562 13.601562 L 4.800781 13.601562 L 4.800781 14.800781 Z M 4.800781 12.800781 L 1.601562 12.800781 L 1.601562 11.601562 L 4.800781 11.601562 Z M 4.800781 15.601562 L 5.199219 15.601562 C 5.421875 15.601562 5.601562 15.421875 5.601562 15.199219 L 5.601562 9.199219 C 5.601562 8.980469 5.421875 8.800781 5.199219 8.800781 L 4.992188 8.800781 C 5.558594 6.335938 7.390625 4.324219 9.804688 3.546875 L 11.664062 5.808594 L 11.699219 5.855469 L 12.007812 6.230469 L 12.320312 5.855469 L 14.210938 3.550781 C 16.613281 4.335938 18.445312 6.34375 19.007812 8.800781 L 18.800781 8.800781 C 18.578125 8.800781 18.398438 8.980469 18.398438 9.199219 L 18.398438 15.199219 C 18.398438 15.421875 18.578125 15.601562 18.800781 15.601562 L 19.199219 15.601562 L 19.199219 17.199219 L 4.800781 17.199219 Z M 9.121094 1.25 C 9.292969 1.195312 9.464844 1.144531 9.636719 1.101562 C 9.734375 1.078125 9.835938 1.054688 9.933594 1.035156 C 10.089844 1 10.25 0.964844 10.410156 0.9375 C 10.527344 0.917969 10.640625 0.90625 10.757812 0.890625 C 10.910156 0.871094 11.058594 0.847656 11.210938 0.835938 C 11.347656 0.824219 11.492188 0.820312 11.632812 0.816406 C 11.882812 0.808594 12.132812 0.808594 12.386719 0.816406 C 12.523438 0.824219 12.660156 0.824219 12.796875 0.835938 C 12.953125 0.847656 13.113281 0.871094 13.273438 0.894531 C 13.378906 0.90625 13.488281 0.917969 13.59375 0.9375 C 13.757812 0.964844 13.925781 1.003906 14.089844 1.039062 C 14.183594 1.058594 14.277344 1.078125 14.367188 1.101562 C 14.542969 1.148438 14.71875 1.199219 14.894531 1.257812 C 14.9375 1.269531 14.980469 1.285156 15.023438 1.296875 L 12.007812 4.96875 L 8.992188 1.292969 C 9.035156 1.277344 9.078125 1.265625 9.121094 1.25 Z M 22.398438 12.800781 L 19.199219 12.800781 L 19.199219 11.601562 L 22.398438 11.601562 Z M 22.398438 14.800781 L 19.199219 14.800781 L 19.199219 13.601562 L 22.398438 13.601562 Z M 22.398438 10.800781 L 19.199219 10.800781 L 19.199219 9.601562 L 22.398438 9.601562 Z M 21.460938 8.800781 L 19.820312 8.800781 C 19.265625 6.09375 17.332031 3.847656 14.75 2.894531 L 15.8125 1.601562 C 18.722656 2.863281 20.910156 5.527344 21.460938 8.800781 Z M 8.203125 1.59375 L 9.265625 2.886719 C 6.671875 3.839844 4.738281 6.085938 4.179688 8.800781 L 2.539062 8.800781 C 3.089844 5.523438 5.285156 2.855469 8.203125 1.59375 Z M 1.601562 9.601562 L 4.800781 9.601562 L 4.800781 10.800781 L 1.601562 10.800781 Z M 4 15.601562 L 4 20.800781 L 2.398438 20.800781 L 2.398438 15.601562 Z M 1.199219 22.398438 C 1.199219 21.957031 1.558594 21.601562 2 21.601562 L 4.398438 21.601562 C 4.839844 21.601562 5.199219 21.957031 5.199219 22.398438 L 5.199219 23.199219 L 1.199219 23.199219 Z M 6 22.398438 C 6 22.296875 5.988281 22.199219 5.96875 22.101562 C 5.964844 22.070312 5.953125 22.039062 5.945312 22.007812 C 5.929688 21.941406 5.910156 21.878906 5.886719 21.820312 C 5.875 21.785156 5.859375 21.753906 5.84375 21.71875 C 5.816406 21.664062 5.789062 21.613281 5.757812 21.5625 C 5.804688 21.542969 5.847656 21.519531 5.882812 21.484375 C 5.957031 21.40625 6 21.304688 6 21.199219 C 6 21.089844 5.957031 20.992188 5.882812 20.914062 C 5.734375 20.769531 5.464844 20.769531 5.316406 20.914062 C 5.28125 20.953125 5.253906 20.996094 5.234375 21.039062 C 5.171875 21 5.105469 20.964844 5.035156 20.933594 C 5.011719 20.921875 4.984375 20.914062 4.957031 20.90625 C 4.90625 20.886719 4.855469 20.863281 4.800781 20.851562 L 4.800781 18 L 19.199219 18 L 19.199219 20.851562 C 19.144531 20.863281 19.09375 20.886719 19.042969 20.90625 C 19.015625 20.914062 18.988281 20.921875 18.964844 20.933594 C 18.875 20.972656 18.792969 21.015625 18.714844 21.070312 C 18.695312 21.082031 18.679688 21.09375 18.664062 21.109375 C 18.601562 21.152344 18.546875 21.199219 18.492188 21.25 C 18.46875 21.273438 18.445312 21.300781 18.421875 21.324219 C 18.382812 21.371094 18.339844 21.417969 18.304688 21.46875 C 18.285156 21.496094 18.265625 21.527344 18.246094 21.558594 C 18.210938 21.609375 18.183594 21.664062 18.15625 21.71875 C 18.140625 21.753906 18.125 21.785156 18.113281 21.820312 C 18.089844 21.878906 18.070312 21.945312 18.054688 22.007812 C 18.046875 22.039062 18.035156 22.070312 18.03125 22.101562 C 18.011719 22.199219 18 22.296875 18 22.398438 L 18 23.199219 L 6 23.199219 Z M 22.800781 23.199219 L 18.800781 23.199219 L 18.800781 22.398438 C 18.800781 21.957031 19.160156 21.601562 19.601562 21.601562 L 22 21.601562 C 22.441406 21.601562 22.800781 21.957031 22.800781 22.398438 Z M 22.800781 23.199219"/>
    <path d="M6 18.800781C6 19.019531 5.820312 19.199219 5.601562 19.199219 5.378906 19.199219 5.199219 19.019531 5.199219 18.800781 5.199219 18.578125 5.378906 18.398438 5.601562 18.398438 5.820312 18.398438 6 18.578125 6 18.800781zM7.199219 20C7.199219 20.222656 7.019531 20.398438 6.800781 20.398438 6.578125 20.398438 6.398438 20.222656 6.398438 20 6.398438 19.777344 6.578125 19.601562 6.800781 19.601562 7.019531 19.601562 7.199219 19.777344 7.199219 20zM8.398438 18.800781C8.398438 19.019531 8.222656 19.199219 8 19.199219 7.777344 19.199219 7.601562 19.019531 7.601562 18.800781 7.601562 18.578125 7.777344 18.398438 8 18.398438 8.222656 18.398438 8.398438 18.578125 8.398438 18.800781zM8.398438 21.199219C8.398438 21.421875 8.222656 21.601562 8 21.601562 7.777344 21.601562 7.601562 21.421875 7.601562 21.199219 7.601562 20.980469 7.777344 20.800781 8 20.800781 8.222656 20.800781 8.398438 20.980469 8.398438 21.199219zM9.601562 20C9.601562 20.222656 9.421875 20.398438 9.199219 20.398438 8.980469 20.398438 8.800781 20.222656 8.800781 20 8.800781 19.777344 8.980469 19.601562 9.199219 19.601562 9.421875 19.601562 9.601562 19.777344 9.601562 20zM10.800781 18.800781C10.800781 19.019531 10.621094 19.199219 10.398438 19.199219 10.179688 19.199219 10 19.019531 10 18.800781 10 18.578125 10.179688 18.398438 10.398438 18.398438 10.621094 18.398438 10.800781 18.578125 10.800781 18.800781zM10.800781 21.199219C10.800781 21.421875 10.621094 21.601562 10.398438 21.601562 10.179688 21.601562 10 21.421875 10 21.199219 10 20.980469 10.179688 20.800781 10.398438 20.800781 10.621094 20.800781 10.800781 20.980469 10.800781 21.199219zM12 20C12 20.222656 11.820312 20.398438 11.601562 20.398438 11.378906 20.398438 11.199219 20.222656 11.199219 20 11.199219 19.777344 11.378906 19.601562 11.601562 19.601562 11.820312 19.601562 12 19.777344 12 20zM13.199219 18.800781C13.199219 19.019531 13.019531 19.199219 12.800781 19.199219 12.578125 19.199219 12.398438 19.019531 12.398438 18.800781 12.398438 18.578125 12.578125 18.398438 12.800781 18.398438 13.019531 18.398438 13.199219 18.578125 13.199219 18.800781zM13.199219 21.199219C13.199219 21.421875 13.019531 21.601562 12.800781 21.601562 12.578125 21.601562 12.398438 21.421875 12.398438 21.199219 12.398438 20.980469 12.578125 20.800781 12.800781 20.800781 13.019531 20.800781 13.199219 20.980469 13.199219 21.199219zM14.398438 20C14.398438 20.222656 14.222656 20.398438 14 20.398438 13.777344 20.398438 13.601562 20.222656 13.601562 20 13.601562 19.777344 13.777344 19.601562 14 19.601562 14.222656 19.601562 14.398438 19.777344 14.398438 20zM15.601562 18.800781C15.601562 19.019531 15.421875 19.199219 15.199219 19.199219 14.980469 19.199219 14.800781 19.019531 14.800781 18.800781 14.800781 18.578125 14.980469 18.398438 15.199219 18.398438 15.421875 18.398438 15.601562 18.578125 15.601562 18.800781zM15.601562 21.199219C15.601562 21.421875 15.421875 21.601562 15.199219 21.601562 14.980469 21.601562 14.800781 21.421875 14.800781 21.199219 14.800781 20.980469 14.980469 20.800781 15.199219 20.800781 15.421875 20.800781 15.601562 20.980469 15.601562 21.199219zM16.800781 20C16.800781 20.222656 16.621094 20.398438 16.398438 20.398438 16.179688 20.398438 16 20.222656 16 20 16 19.777344 16.179688 19.601562 16.398438 19.601562 16.621094 19.601562 16.800781 19.777344 16.800781 20zM18 18.800781C18 19.019531 17.820312 19.199219 17.601562 19.199219 17.378906 19.199219 17.199219 19.019531 17.199219 18.800781 17.199219 18.578125 17.378906 18.398438 17.601562 18.398438 17.820312 18.398438 18 18.578125 18 18.800781zM18 21.199219C18 21.421875 17.820312 21.601562 17.601562 21.601562 17.378906 21.601562 17.199219 21.421875 17.199219 21.199219 17.199219 20.980469 17.378906 20.800781 17.601562 20.800781 17.820312 20.800781 18 20.980469 18 21.199219zM19.199219 20C19.199219 20.222656 19.019531 20.398438 18.800781 20.398438 18.578125 20.398438 18.398438 20.222656 18.398438 20 18.398438 19.777344 18.578125 19.601562 18.800781 19.601562 19.019531 19.601562 19.199219 19.777344 19.199219 20zM7.199219 22.398438C7.199219 22.621094 7.019531 22.800781 6.800781 22.800781 6.578125 22.800781 6.398438 22.621094 6.398438 22.398438 6.398438 22.179688 6.578125 22 6.800781 22 7.019531 22 7.199219 22.179688 7.199219 22.398438zM9.601562 22.398438C9.601562 22.621094 9.421875 22.800781 9.199219 22.800781 8.980469 22.800781 8.800781 22.621094 8.800781 22.398438 8.800781 22.179688 8.980469 22 9.199219 22 9.421875 22 9.601562 22.179688 9.601562 22.398438zM12 22.398438C12 22.621094 11.820312 22.800781 11.601562 22.800781 11.378906 22.800781 11.199219 22.621094 11.199219 22.398438 11.199219 22.179688 11.378906 22 11.601562 22 11.820312 22 12 22.179688 12 22.398438zM14.398438 22.398438C14.398438 22.621094 14.222656 22.800781 14 22.800781 13.777344 22.800781 13.601562 22.621094 13.601562 22.398438 13.601562 22.179688 13.777344 22 14 22 14.222656 22 14.398438 22.179688 14.398438 22.398438zM16.800781 22.398438C16.800781 22.621094 16.621094 22.800781 16.398438 22.800781 16.179688 22.800781 16 22.621094 16 22.398438 16 22.179688 16.179688 22 16.398438 22 16.621094 22 16.800781 22.179688 16.800781 22.398438zM11.199219 8.398438L9.601562 8.398438C9.378906 8.398438 9.199219 8.578125 9.199219 8.800781 9.199219 9.019531 9.378906 9.199219 9.601562 9.199219L11.199219 9.199219C11.421875 9.199219 11.601562 9.019531 11.601562 8.800781 11.601562 8.578125 11.421875 8.398438 11.199219 8.398438zM14.398438 8.398438L12.800781 8.398438C12.578125 8.398438 12.398438 8.578125 12.398438 8.800781 12.398438 9.019531 12.578125 9.199219 12.800781 9.199219L14.398438 9.199219C14.621094 9.199219 14.800781 9.019531 14.800781 8.800781 14.800781 8.578125 14.621094 8.398438 14.398438 8.398438zM11.199219 11.601562L9.601562 11.601562C9.378906 11.601562 9.199219 11.777344 9.199219 12 9.199219 12.222656 9.378906 12.398438 9.601562 12.398438L11.199219 12.398438C11.421875 12.398438 11.601562 12.222656 11.601562 12 11.601562 11.777344 11.421875 11.601562 11.199219 11.601562zM14.398438 11.601562L12.800781 11.601562C12.578125 11.601562 12.398438 11.777344 12.398438 12 12.398438 12.222656 12.578125 12.398438 12.800781 12.398438L14.398438 12.398438C14.621094 12.398438 14.800781 12.222656 14.800781 12 14.800781 11.777344 14.621094 11.601562 14.398438 11.601562zM11.199219 14.800781L9.601562 14.800781C9.378906 14.800781 9.199219 14.980469 9.199219 15.199219 9.199219 15.421875 9.378906 15.601562 9.601562 15.601562L11.199219 15.601562C11.421875 15.601562 11.601562 15.421875 11.601562 15.199219 11.601562 14.980469 11.421875 14.800781 11.199219 14.800781zM14.398438 14.800781L12.800781 14.800781C12.578125 14.800781 12.398438 14.980469 12.398438 15.199219 12.398438 15.421875 12.578125 15.601562 12.800781 15.601562L14.398438 15.601562C14.621094 15.601562 14.800781 15.421875 14.800781 15.199219 14.800781 14.980469 14.621094 14.800781 14.398438 14.800781zM14.398438 14.800781"/>
</svg>

<svg xmlns="http://www.w3.org/2000/svg" width="32" height="32" viewBox="0 0 24 24">
    <path d="M8.281 7.719A.384.384 0 0 0 8 7.602h-.8a.384.384 0 0 0-.282.117l-.402.398a.4.4 0 0 0-.118.281V9.2c0 .106.043.207.118.285l.402.399a.4.4 0 0 0 .281.117H8a.4.4 0 0 0 .281-.117l.403-.399A.416.416 0 0 0 8.8 9.2v-.8a.4.4 0 0 0-.117-.282zM8 9.035l-.164.164h-.469L7.2 9.035v-.469l.168-.168h.469L8 8.566zm0 0M8.281 10.918A.4.4 0 0 0 8 10.801h-.8a.4.4 0 0 0-.282.117l-.402.398a.402.402 0 0 0-.118.286v.796c0 .11.043.211.118.286l.402.398a.4.4 0 0 0 .281.117H8a.4.4 0 0 0 .281-.117l.403-.398a.402.402 0 0 0 .117-.286v-.796c0-.11-.043-.211-.117-.286zM8 12.234l-.164.164h-.469l-.168-.164v-.468l.168-.164h.469l.164.164zm0 0M8.281 14.117A.4.4 0 0 0 8 14h-.8a.4.4 0 0 0-.282.117l-.402.399a.416.416 0 0 0-.118.285v.8a.4.4 0 0 0 .118.282l.402.398a.384.384 0 0 0 .281.117H8c.105 0 .207-.039.281-.117l.403-.398a.4.4 0 0 0 .117-.281V14.8a.416.416 0 0 0-.117-.285zM8 15.434l-.164.168h-.469l-.168-.168v-.47l.168-.163h.469l.164.164zm0 0M17.082 7.719a.384.384 0 0 0-.281-.117H16a.384.384 0 0 0-.281.117l-.403.398a.4.4 0 0 0-.117.281V9.2c0 .106.043.207.117.285l.403.399A.4.4 0 0 0 16 10h.8a.4.4 0 0 0 .282-.117l.402-.399a.416.416 0 0 0 .118-.285v-.8a.4.4 0 0 0-.118-.282zm-.281 1.316l-.168.164h-.469L16 9.035v-.469l.164-.168h.469l.168.168zm0 0M17.082 10.918a.4.4 0 0 0-.281-.117H16a.4.4 0 0 0-.281.117l-.403.398a.402.402 0 0 0-.117.286v.796c0 .11.043.211.117.286l.403.398a.4.4 0 0 0 .281.117h.8a.4.4 0 0 0 .282-.117l.402-.398a.402.402 0 0 0 .118-.286v-.796c0-.11-.043-.211-.118-.286zm-.281 1.316l-.168.164h-.469L16 12.234v-.468l.164-.164h.469l.168.164zm0 0M17.082 14.117a.4.4 0 0 0-.281-.117H16a.4.4 0 0 0-.281.117l-.403.399a.416.416 0 0 0-.117.285v.8a.4.4 0 0 0 .117.282l.403.398a.384.384 0 0 0 .281.117h.8c.106 0 .208-.039.282-.117l.402-.398a.4.4 0 0 0 .118-.281V14.8a.416.416 0 0 0-.118-.285zm-.281 1.317l-.168.168h-.469L16 15.434v-.47l.164-.163h.469l.168.164zm0 0"/>
    <path d="M22.398 20.855v-5.253h.403c.219 0 .398-.18.398-.403v-6a.4.4 0 0 0-.398-.398h-.531A10.406 10.406 0 0 0 16.344.953l.004-.008-.188-.074A10.305 10.305 0 0 0 12 0c-1.473 0-2.883.309-4.16.871l-.176.07.008.008A10.4 10.4 0 0 0 1.73 8.801H1.2a.4.4 0 0 0-.4.398v6c0 .223.18.403.4.403h.402v5.253c-.692.18-1.204.801-1.204 1.543v1.204c0 .218.18.398.403.398h22.398c.223 0 .403-.18.403-.398v-1.204c0-.742-.512-1.363-1.204-1.543zm-.796-.054H20v-5.2h1.602zm-20-6v-1.2H4.8v1.2zm3.199-2H1.6v-1.2h3.2zm0 2.8h.398c.223 0 .403-.18.403-.402v-6a.401.401 0 0 0-.403-.398h-.207a7.231 7.231 0 0 1 4.813-5.254l1.86 2.262.034.046.309.375.312-.375 1.89-2.304a7.247 7.247 0 0 1 4.798 5.25H18.8a.401.401 0 0 0-.403.398v6c0 .223.18.403.403.403h.398v1.597H4.801zM9.12 1.25c.172-.055.344-.105.516-.148.097-.024.199-.047.297-.067.156-.035.316-.07.476-.097.117-.02.23-.032.348-.047.152-.02.3-.043.453-.055.137-.012.281-.016.422-.02.25-.007.5-.007.754 0 .136.008.273.008.41.02.156.012.316.035.476.059.106.011.215.023.32.042.165.028.333.067.497.102.094.02.187.04.277.063.176.046.352.097.528.156.043.012.085.027.128.039l-3.015 3.672-3.016-3.676c.043-.016.086-.027.13-.043zM22.398 12.8H19.2v-1.198h3.2zm0 2H19.2v-1.198h3.2zm0-4H19.2V9.603h3.2zm-.937-2h-1.64a8.037 8.037 0 0 0-5.071-5.905l1.063-1.293A9.59 9.59 0 0 1 21.46 8.8zM8.203 1.595l1.063 1.293A8.04 8.04 0 0 0 4.18 8.8H2.54a9.597 9.597 0 0 1 5.663-7.207zM1.602 9.602H4.8V10.8H1.6zm2.398 6V20.8H2.398v-5.2zm-2.8 6.796c0-.441.359-.796.8-.796h2.398c.442 0 .801.355.801.796v.801h-4zm4.8 0c0-.101-.012-.199-.031-.296-.004-.032-.016-.063-.024-.094a1.316 1.316 0 0 0-.058-.188c-.012-.035-.028-.066-.043-.101a1.999 1.999 0 0 0-.086-.157.376.376 0 0 0 .125-.078A.416.416 0 0 0 6 21.2a.409.409 0 0 0-.117-.285.424.424 0 0 0-.567 0 .493.493 0 0 0-.082.125 1.606 1.606 0 0 0-.199-.105.46.46 0 0 0-.078-.028c-.05-.02-.102-.043-.156-.054V18h14.398v2.852c-.054.011-.105.035-.156.054a.46.46 0 0 0-.078.028 1.404 1.404 0 0 0-.3.175c-.063.043-.118.09-.173.141l-.07.074c-.04.047-.082.094-.117.145-.02.027-.04.058-.059.09a1.29 1.29 0 0 0-.09.16c-.015.035-.031.066-.043.101a1.493 1.493 0 0 0-.058.188c-.008.031-.02.062-.024.094-.02.097-.031.195-.031.296v.801H6zm16.8.801h-4v-.8c0-.442.36-.797.802-.797H22c.441 0 .8.355.8.796zm0 0"/>
    <path d="M6 18.8a.4.4 0 1 1-.8-.003.4.4 0 0 1 .8.004zm0 0M7.2 20c0 .223-.18.398-.4.398a.398.398 0 1 1 0-.796c.22 0 .4.175.4.398zm0 0M8.398 18.8a.398.398 0 1 1-.796 0 .398.398 0 1 1 .796 0zm0 0M8.398 21.2a.398.398 0 1 1-.796 0 .398.398 0 1 1 .796 0zm0 0M9.602 20c0 .223-.18.398-.403.398a.398.398 0 1 1 0-.796c.223 0 .403.175.403.398zm0 0M10.8 18.8a.401.401 0 1 1-.801-.004.401.401 0 0 1 .802.005zm0 0M10.8 21.2a.401.401 0 1 1 0 0zm0 0M12 20c0 .223-.18.398-.398.398a.398.398 0 1 1 0-.796c.218 0 .398.175.398.398zm0 0M13.2 18.8a.4.4 0 1 1-.801-.003.4.4 0 0 1 .8.004zm0 0M13.2 21.2a.401.401 0 1 1-.803.002.401.401 0 0 1 .802-.003zm0 0M14.398 20a.395.395 0 0 1-.398.398.395.395 0 0 1-.398-.398c0-.223.175-.398.398-.398.223 0 .398.175.398.398zm0 0M15.602 18.8a.401.401 0 1 1-.802-.004.401.401 0 0 1 .802.005zm0 0M15.602 21.2a.401.401 0 1 1 0 0zm0 0M16.8 20c0 .223-.179.398-.402.398a.398.398 0 1 1 0-.796c.223 0 .403.175.403.398zm0 0M18 18.8a.4.4 0 1 1-.8-.003.4.4 0 0 1 .8.004zm0 0M18 21.2a.401.401 0 1 1-.802.002.401.401 0 0 1 .802-.003zm0 0M19.2 20c0 .223-.18.398-.4.398a.398.398 0 1 1 0-.796c.22 0 .4.175.4.398zm0 0M7.2 22.398a.401.401 0 1 1-.803.003.401.401 0 0 1 .802-.003zm0 0M9.602 22.398a.401.401 0 1 1 0 0zm0 0M12 22.398a.401.401 0 1 1-.802.003.401.401 0 0 1 .802-.003zm0 0M14.398 22.398a.398.398 0 1 1-.796 0 .398.398 0 1 1 .796 0zm0 0M16.8 22.398a.401.401 0 1 1 0 0zm0 0M11.2 8.398H9.601a.401.401 0 0 0 0 .8l1.597.001a.401.401 0 1 0 0-.8zm0 0M14.398 8.398h-1.597a.401.401 0 0 0 0 .8l1.597.001a.401.401 0 1 0 0-.8zm0 0M11.2 11.602H9.601a.398.398 0 1 0 0 .796h1.597a.398.398 0 1 0 0-.796zm0 0M14.398 11.602h-1.597a.398.398 0 1 0 0 .796h1.597a.398.398 0 1 0 0-.796zm0 0M11.2 14.8H9.601a.401.401 0 1 0 0 .802h1.597a.401.401 0 0 0 0-.8zm0 0M14.398 14.8h-1.597a.401.401 0 1 0 0 .802h1.597a.401.401 0 0 0 0-.8zm0 0"/>
</svg>
